X:465
T: Gongchandang geilewo yengling de sang
N: C2083
O: China, Qinghai Osten
S: I, 240]
N: Hui Han
R: Shange, Jingjinghualing]
M: 2/4
L: 1/16
K: F
A2 | c2c2d2df | f2dcA2A2 | c4d2df | dcd6- | d8
c2c2d2df | c2A2A4
c2c2d2df | f2dcA2AG | F2FDc2cA | GFG4A2 | F2FDc2cA | G2G6
c2c2d2df | f2dcA2AG | F2FDc2cA | G2G6 | GAGFD2DF | DCD4

